img/apple.svg

<svg width="22" height="23" viewBox="0 0 22 23" fill="none" xmlns="http://www.w3.org/2000/svg">
<g clip-path="url(#clip0_4063_1069)">
<path d="M16.8737 21.6173C15.7073 22.7783 14.4338 22.595 13.208 22.0451C11.9107 21.4829 10.7205 21.4585 9.35184 22.0451C7.63801 22.8027 6.73349 22.5828 5.70995 21.6173C-0.098044 15.4703 0.758873 6.10929 7.35237 5.76711C8.95909 5.85266 10.0778 6.67144 11.0181 6.74477C12.4225 6.45147 13.7673 5.60824 15.2669 5.71823C17.0641 5.86488 18.4209 6.59812 19.3135 7.91795C15.6002 10.2032 16.4809 15.2259 19.8848 16.6313C19.2064 18.4644 18.3257 20.2853 16.8618 21.6296L16.8737 21.6173ZM10.8991 5.69379C10.7205 2.96858 12.8747 0.719972 15.3503 0.5C15.6954 3.65294 12.5653 5.99931 10.8991 5.69379Z" fill="#0F0F0F"/>
</g>
<defs>
<clipPath id="clip0_4063_1069">
<rect width="22" height="22" fill="white" transform="translate(0 0.5)"/>
</clipPath>
</defs>
</svg>

<svg width="22" height="23" fill="none" xmlns="http://www.w3.org/2000/svg"><g clip-path="url(#a)"><path d="M16.874 21.617c-1.167 1.161-2.44.978-3.666.428-1.297-.562-2.488-.587-3.856 0-1.714.758-2.619.538-3.642-.428C-.098 15.47.759 6.11 7.352 5.767c1.607.086 2.726.904 3.666.978 1.404-.294 2.75-1.137 4.249-1.027 1.797.147 3.154.88 4.047 2.2-3.714 2.285-2.833 7.308.57 8.713-.678 1.833-1.558 3.654-3.022 4.999l.012-.013ZM10.899 5.694C10.721 2.969 12.875.72 15.35.5c.345 3.153-2.785 5.5-4.45 5.194Z" fill="#0F0F0F"/></g><defs><clipPath id="a"><path fill="#fff" transform="translate(0 .5)" d="M0 0h22v22H0z"/></clipPath></defs></svg>
